X: 41519
T: Una Sera
R: waltz
M: 3/4
K: Gmajor
|:"G"d2B2zd|"D7" c2A2zc|"Em7" B2G2D2|"F/D"=F6|
"G"D2G2A2|"Em"B4c2|"Am"e4d2|"D6"B4c2|
"G"d2B2zd|"D7"c2A2zc|"Em7" B2G2D2|"F"=F6|
[1 "G"D2G2B2|"A7"^c2e2c2|"D"d6|"D7"z2B2c2:|
[2 "Dsus4"D2G2A2|"D7"c4B2|"G"G6|"G7" z2A2B2||
|:"C"c2d2e2|"D7"g2f2e2|"G"d2B2zg|"Em7"d2B2G2|
"Cm"c2_e2g2|"Cm7b5"_b2a2_e2|"G" d6|"Em"z2c2d2|
"Am"e2c2A2|"Cm"_e2d2zc|"Gm"_B2A2G2|"Cm7b5"_E6|
"Dsus4"D2G2A2|"D7"c4B2|1 "G"G6|"G7"z2A2B2:|2 "G"G6|z2B2c2||

